X:1
T:Frank's Reel
R:Reel
C:John McCusker
M:C|
K:A
"A"AcBA "D"F3 A|"A"EFAB cABc|"D"d3 f "A"eAce|"Bm"faec "E"(3Bcd cB|
"A"AcBA "D"F2 AF|"A"EFAB cABc|"D"d3 f "A"ecAc|"E"BAGB "A"A2 (3EFG||
"A"AcBA "D"F3 A|"A"EFAB cABc|"D"d3 df "A"eAce|"Bm"faec "E"(3Bcd cB|
"A"AcBA "D"EFAF|"A"EFAB cABc|"D"df (3fff "A"ecAc|"E"BAGB "A"Aefg||
"A"LaAALg AALfA|effe cABc|"D"d3 f "A"ecAc|"Bm"Bcde "E"fe (3efg|
"A"LaAALg AALfA|effe cABc|"D"df (3fff "A"ecAc|"E"BAGB "A"Aefg|
"A"LaAALg AALfA|ef-fe cABc|"D"d3 df "A"eAce|"Bm"faec "E"(3Bcd cB|
"A"AcBA "D"F3 A|"A"EFAB cABc|"D"d3 f "A"ecAc|"E"BAGB "A"A4|]
